doc/_shared_assets/themes/nextcloud_com/static/img/warning.svg

<?xml version="1.0" encoding="utf-8"?>
<!-- Generator: Adobe Illustrator 18.0.0, SVG Export Plug-In . SVG Version: 6.00 Build 0)  -->
<!DOCTYPE svg PUBLIC "-//W3C//DTD SVG 1.1//EN" "http://www.w3.org/Graphics/SVG/1.1/DTD/svg11.dtd">
<svg version="1.1" id="Ebene_1" xmlns="http://www.w3.org/2000/svg" xmlns:xlink="http://www.w3.org/1999/xlink" x="0px" y="0px"
	 width="32px" height="32px" viewBox="0 0 32 32" enable-background="new 0 0 32 32" xml:space="preserve">
<path fill="#DD1144" d="M9.4,0L0,9.4v13.2L9.4,32h13.2l9.4-9.4V9.4L22.6,0L9.4,0z M13.3,5.3h5.3v13.3h-5.3V5.3z M13.3,21.3h5.3v5.3
	h-5.3V21.3z"/>
</svg>

<?xml version="1.0" encoding="UTF-8" standalone="no"?>
<!DOCTYPE svg PUBLIC "-//W3C//DTD SVG 1.1//EN" "http://www.w3.org/Graphics/SVG/1.1/DTD/svg11.dtd">
<svg width="100%" height="100%" viewBox="0 0 32 32"
	xmlns="http://www.w3.org/2000/svg" version="1.1">
	<path d="M9.4,0L0,9.4L0,22.6L9.4,32L22.6,32L32,22.6L32,9.4L22.6,0L9.4,0ZM13.3,5.3L18.6,5.3L18.6,18.6L13.3,18.6L13.3,5.3ZM13.3,21.3L18.6,21.3L18.6,26.6L13.3,26.6L13.3,21.3Z" style="fill:rgb(221,17,68);fill-rule:nonzero;"/>
</svg>
